src/pos-icons/cake-layered.svg

<svg height="24" viewBox="0 0 24 24" width="24" xmlns="http://www.w3.org/2000/svg"><path d="m21 21v-4c0-1.11-.9-2-2-2h-1v-3c0-1.11-.9-2-2-2h-3v-2h-2v2h-3c-1.11 0-2 .89-2 2v3h-1c-1.11 0-2 .89-2 2v4h-2v2h22v-2m-11-14a2 2 0 0 0 2-2c0-.38-.1-.73-.29-1.03l-1.71-2.97-1.72 2.97c-.18.3-.28.65-.28 1.03a2 2 0 0 0 2 2z"/></svg>

<?xml version="1.0" encoding="UTF-8"?><!DOCTYPE svg PUBLIC "-//W3C//DTD SVG 1.1//EN" "http://www.w3.org/Graphics/SVG/1.1/DTD/svg11.dtd"><svg xmlns="http://www.w3.org/2000/svg" xmlns:xlink="http://www.w3.org/1999/xlink" version="1.1" id="mdi-cake-layered" width="24" height="24" viewBox="0 0 24 24"><path d="M21,21V17C21,15.89 20.1,15 19,15H18V12C18,10.89 17.1,10 16,10H13V8H11V10H8C6.89,10 6,10.89 6,12V15H5C3.89,15 3,15.89 3,17V21H1V23H23V21M12,7A2,2 0 0,0 14,5C14,4.62 13.9,4.27 13.71,3.97L12,1L10.28,3.97C10.1,4.27 10,4.62 10,5A2,2 0 0,0 12,7Z" /></svg>
